img/svg/calendar-ico.svg

<svg width="14" height="14" viewBox="0 0 14 14" fill="none" xmlns="http://www.w3.org/2000/svg">
<path d="M10.5547 6.28906C10.8567 6.28906 11.1016 6.04422 11.1016 5.74219C11.1016 5.44016 10.8567 5.19531 10.5547 5.19531C10.2527 5.19531 10.0078 5.44016 10.0078 5.74219C10.0078 6.04422 10.2527 6.28906 10.5547 6.28906Z" fill="#4C51CC"/>
<path d="M11.8125 1.09375H11.1016V0.546875C11.1016 0.244836 10.8567 0 10.5547 0C10.2526 0 10.0078 0.244836 10.0078 0.546875V1.09375H7.51953V0.546875C7.51953 0.244836 7.2747 0 6.97266 0C6.67062 0 6.42578 0.244836 6.42578 0.546875V1.09375H3.96484V0.546875C3.96484 0.244836 3.72001 0 3.41797 0C3.11593 0 2.87109 0.244836 2.87109 0.546875V1.09375H2.1875C0.981313 1.09375 0 2.07506 0 3.28125V11.8125C0 13.0187 0.981313 14 2.1875 14H6.37109C6.67313 14 6.91797 13.7552 6.91797 13.4531C6.91797 13.1511 6.67313 12.9062 6.37109 12.9062H2.1875C1.58441 12.9062 1.09375 12.4156 1.09375 11.8125V3.28125C1.09375 2.67816 1.58441 2.1875 2.1875 2.1875H2.87109V2.73438C2.87109 3.03641 3.11593 3.28125 3.41797 3.28125C3.72001 3.28125 3.96484 3.03641 3.96484 2.73438V2.1875H6.42578V2.73438C6.42578 3.03641 6.67062 3.28125 6.97266 3.28125C7.2747 3.28125 7.51953 3.03641 7.51953 2.73438V2.1875H10.0078V2.73438C10.0078 3.03641 10.2526 3.28125 10.5547 3.28125C10.8567 3.28125 11.1016 3.03641 11.1016 2.73438V2.1875H11.8125C12.4156 2.1875 12.9062 2.67816 12.9062 3.28125V6.39844C12.9062 6.70048 13.1511 6.94531 13.4531 6.94531C13.7552 6.94531 14 6.70048 14 6.39844V3.28125C14 2.07506 13.0187 1.09375 11.8125 1.09375Z" fill="#4C51CC"/>
<path d="M10.6914 7.38281C8.86703 7.38281 7.38281 8.86703 7.38281 10.6914C7.38281 12.5158 8.86703 14 10.6914 14C12.5158 14 14 12.5158 14 10.6914C14 8.86703 12.5158 7.38281 10.6914 7.38281ZM10.6914 12.9062C9.47015 12.9062 8.47656 11.9127 8.47656 10.6914C8.47656 9.47012 9.47015 8.47656 10.6914 8.47656C11.9127 8.47656 12.9062 9.47012 12.9062 10.6914C12.9062 11.9127 11.9127 12.9062 10.6914 12.9062Z" fill="#4C51CC"/>
<path d="M11.4844 10.1445H11.2383V9.57031C11.2383 9.26827 10.9934 9.02344 10.6914 9.02344C10.3894 9.02344 10.1445 9.26827 10.1445 9.57031V10.6914C10.1445 10.9934 10.3894 11.2383 10.6914 11.2383H11.4844C11.7864 11.2383 12.0312 10.9934 12.0312 10.6914C12.0312 10.3894 11.7864 10.1445 11.4844 10.1445Z" fill="#4C51CC"/>
<path d="M8.17578 6.28906C8.47781 6.28906 8.72266 6.04422 8.72266 5.74219C8.72266 5.44016 8.47781 5.19531 8.17578 5.19531C7.87375 5.19531 7.62891 5.44016 7.62891 5.74219C7.62891 6.04422 7.87375 6.28906 8.17578 6.28906Z" fill="#4C51CC"/>
<path d="M5.79688 8.66797C6.09891 8.66797 6.34375 8.42312 6.34375 8.12109C6.34375 7.81906 6.09891 7.57422 5.79688 7.57422C5.49484 7.57422 5.25 7.81906 5.25 8.12109C5.25 8.42312 5.49484 8.66797 5.79688 8.66797Z" fill="#4C51CC"/>
<path d="M3.41797 6.28906C3.72 6.28906 3.96484 6.04422 3.96484 5.74219C3.96484 5.44016 3.72 5.19531 3.41797 5.19531C3.11594 5.19531 2.87109 5.44016 2.87109 5.74219C2.87109 6.04422 3.11594 6.28906 3.41797 6.28906Z" fill="#4C51CC"/>
<path d="M3.41797 8.66797C3.72 8.66797 3.96484 8.42312 3.96484 8.12109C3.96484 7.81906 3.72 7.57422 3.41797 7.57422C3.11594 7.57422 2.87109 7.81906 2.87109 8.12109C2.87109 8.42312 3.11594 8.66797 3.41797 8.66797Z" fill="#4C51CC"/>
<path d="M3.41797 11.0469C3.72 11.0469 3.96484 10.802 3.96484 10.5C3.96484 10.198 3.72 9.95312 3.41797 9.95312C3.11594 9.95312 2.87109 10.198 2.87109 10.5C2.87109 10.802 3.11594 11.0469 3.41797 11.0469Z" fill="#4C51CC"/>
<path d="M5.79688 11.0469C6.09891 11.0469 6.34375 10.802 6.34375 10.5C6.34375 10.198 6.09891 9.95312 5.79688 9.95312C5.49484 9.95312 5.25 10.198 5.25 10.5C5.25 10.802 5.49484 11.0469 5.79688 11.0469Z" fill="#4C51CC"/>
<path d="M5.79688 6.28906C6.09891 6.28906 6.34375 6.04422 6.34375 5.74219C6.34375 5.44016 6.09891 5.19531 5.79688 5.19531C5.49484 5.19531 5.25 5.44016 5.25 5.74219C5.25 6.04422 5.49484 6.28906 5.79688 6.28906Z" fill="#4C51CC"/>
</svg>

<svg width="14" height="14" fill="none" xmlns="http://www.w3.org/2000/svg"><path d="M10.555 6.29a.547.547 0 100-1.095.547.547 0 000 1.094z" fill="#4C51CC"/><path d="M11.813 1.094h-.711V.547a.547.547 0 00-1.094 0v.547H7.52V.547a.547.547 0 10-1.094 0v.547H3.965V.547a.547.547 0 10-1.094 0v.547h-.683A2.19 2.19 0 000 3.28v8.531A2.19 2.19 0 002.188 14H6.37a.547.547 0 100-1.094H2.187c-.603 0-1.093-.49-1.093-1.094v-8.53c0-.604.49-1.095 1.093-1.095h.684v.547a.547.547 0 101.094 0v-.546h2.46v.546a.547.547 0 101.095 0v-.546h2.488v.546a.547.547 0 101.094 0v-.546h.71c.604 0 1.094.49 1.094 1.093v3.117a.547.547 0 001.094 0V3.281a2.19 2.19 0 00-2.188-2.187z" fill="#4C51CC"/><path d="M10.691 7.383a3.312 3.312 0 00-3.308 3.308A3.312 3.312 0 0010.69 14 3.312 3.312 0 0014 10.691a3.312 3.312 0 00-3.309-3.308zm0 5.523a2.217 2.217 0 01-2.214-2.215c0-1.22.993-2.214 2.214-2.214 1.222 0 2.215.993 2.215 2.214a2.217 2.217 0 01-2.215 2.215z" fill="#4C51CC"/><path d="M11.484 10.145h-.246V9.57a.547.547 0 00-1.093 0v1.121c0 .302.244.547.546.547h.793a.547.547 0 000-1.093zM8.176 6.29a.547.547 0 100-1.095.547.547 0 000 1.094zM5.797 8.668a.547.547 0 100-1.094.547.547 0 000 1.094zM3.418 6.29a.547.547 0 100-1.095.547.547 0 000 1.094zm0 2.378a.547.547 0 100-1.094.547.547 0 000 1.094zm0 2.379a.547.547 0 100-1.094.547.547 0 000 1.094zm2.379 0a.547.547 0 100-1.094.547.547 0 000 1.094zm0-4.757a.547.547 0 100-1.095.547.547 0 000 1.094z" fill="#4C51CC"/></svg>
